material/.icons/material/head-question-outline.svg

<svg xmlns="http://www.w3.org/2000/svg" viewBox="0 0 24 24"><path d="M13 3c3.88 0 7 3.14 7 7 0 2.8-1.63 5.19-4 6.31V21H9v-3H8c-1.11 0-2-.89-2-2v-3H4.5c-.42 0-.66-.5-.42-.81L6 9.66A7.003 7.003 0 0113 3m-2.68 4.39h1.93c.01-.3.1-.53.28-.69a1 1 0 01.66-.23c.31 0 .57.1.75.28.18.19.26.45.26.75 0 .32-.07.59-.23.82-.14.23-.35.43-.61.59-.51.34-.86.64-1.05.91-.2.26-.31.68-.31 1.18h2c0-.31.04-.56.13-.74.09-.19.26-.36.51-.52.45-.24.82-.53 1.11-.93.29-.4.44-.81.44-1.31 0-.76-.27-1.37-.81-1.82-.53-.45-1.26-.68-2.19-.68-.87 0-1.57.2-2.11.59-.52.41-.78.98-.77 1.77l.01.03M12 14h2v-2h-2v2m1-13C8.41 1 4.61 4.42 4.06 8.9L2.5 11h-.03l-.02.03c-.55.76-.62 1.76-.19 2.59.36.69 1 1.17 1.74 1.32V16c0 1.85 1.28 3.42 3 3.87V23h11v-5.5c2.5-1.67 4-4.44 4-7.5 0-4.97-4.04-9-9-9z"/></svg>

<?xml version="1.0" encoding="UTF-8"?><!DOCTYPE svg PUBLIC "-//W3C//DTD SVG 1.1//EN" "http://www.w3.org/Graphics/SVG/1.1/DTD/svg11.dtd"><svg xmlns="http://www.w3.org/2000/svg" xmlns:xlink="http://www.w3.org/1999/xlink" version="1.1" id="mdi-head-question-outline" width="24" height="24" viewBox="0 0 24 24"><path d="M13 3C16.88 3 20 6.14 20 10C20 12.8 18.37 15.19 16 16.31V21H9V18H8C6.89 18 6 17.11 6 16V13H4.5C4.08 13 3.84 12.5 4.08 12.19L6 9.66C6.19 5.95 9.23 3 13 3M10.32 7.39H12.25C12.26 7.09 12.35 6.86 12.53 6.7C12.71 6.55 12.93 6.47 13.19 6.47C13.5 6.47 13.76 6.57 13.94 6.75C14.12 6.94 14.2 7.2 14.2 7.5C14.2 7.82 14.13 8.09 13.97 8.32C13.83 8.55 13.62 8.75 13.36 8.91C12.85 9.25 12.5 9.55 12.31 9.82C12.11 10.08 12 10.5 12 11H14C14 10.69 14.04 10.44 14.13 10.26C14.22 10.07 14.39 9.9 14.64 9.74C15.09 9.5 15.46 9.21 15.75 8.81C16.04 8.41 16.19 8 16.19 7.5C16.19 6.74 15.92 6.13 15.38 5.68C14.85 5.23 14.12 5 13.19 5C12.32 5 11.62 5.2 11.08 5.59C10.56 6 10.3 6.57 10.31 7.36L10.32 7.39M12 14H14V12H12V14M13 1C8.41 1 4.61 4.42 4.06 8.9L2.5 11L2.47 11L2.45 11.03C1.9 11.79 1.83 12.79 2.26 13.62C2.62 14.31 3.26 14.79 4 14.94V16C4 17.85 5.28 19.42 7 19.87V23H18V17.5C20.5 15.83 22 13.06 22 10C22 5.03 17.96 1 13 1Z" /></svg>
